X: 1034
T: Silly old Man
P: Longways for as many as will
R: jig
B: "Caledonian Country Dances" printed by John Walsh for John Johnson, London
S: http://imslp.org/wiki/Caledonian_Country_Dances_with_a_Thorough_Bass_(Various)
Z: 2013 John Chambers <jc:trillian.mit.edu>
N: The 2nd part has initial repeat but no final repeat.
M: 6/8
L: 1/8
K: F
% - - - - - - - - - - - - - - - - - - - - - - - - -
V: 1
C/D/ | F2F Ffd | cAF G2F | GAc d2g | FAF fed | cAF GAc | AGF D2 :|
|: f | fcf f>gf | e>dc dcd | f>ga/b/ Tg2f | f>ga gaf | e>dc def | cAF TG2 |]
% - - - - - - - - - - - - - - - - - - - - - - - - -
V: 2 clef=bass middle=d
z | f3 a2b | f3 e2f | c3 B3 | F3 B3 | d3 c3 | d3 D2 :|
|: z | a3 g3 | c3 b3 | a2f c'2f | a2f e2d | c3 B3 | F3 c2 |]
% - - - - - - - - - - - - - - - - - - - - - - - - -
%%begintext align
The 1st Man and 2d Wo. clap hands with each other and turn single, then right and left half round .|
the other Cu. do the same :|
then cross over and half figure .|
then lead thro' the Bottom and thro' the top, cast off and turn :|
%%endtext
